X: 2123
T: Marshall's    Strathspey
%R: strathspey, air
B: Niel Gow & Sons "A Second Collection of Strathspey Reels, etc." v.2 p.12 #3
Z: 2022 John Chambers <jc:trillian.mit.edu>
M: C
L: 1/16
Q: "Slow"
K: A
% - - - - - - - - - -
V: 1 staves=2
|:\
A,2A2A3B (ABc)A TE4 | B,2B2TB3c TB3A TF4 |\
A,2A2A3B A2B2 (ABcd) | (efga) (fedc) TB4 A4 :|\
Tc2e2e3f e3fe2c2 | TB2A2B2c2 A3BA2E2 |
F2f2Tf3a (fe).d.c (dc).B.A | (Bcdc) (dcBA) TB4 A4 ||\
Tc2e2e3f e3fe2c2 | TB3AB2c2 A3BA2E2 |\
F2A2E2A2 D2A2C3f | {f}Te2c2 {c}TB2A2 TB4 A4 |]
% - - - - - - - - - -
% Voice 2 preserves the staff layout in the book.
V: 2 clef=bass middle=d
|:\
a4A4 A4c4 | d6c2 B4d4 | c4A4 a4A4 | c4d4 e4A4 :| a4c'4 c'4a4 | g4a4 f6c2 |
d4d'4- d'4c'4 | d'6a2 e'4a4 || a4c'4 a4c'4 | g4a4 f4c4 | d4c4 B4A2d2 | c4d4 e4A4 |]


